resources/svg/browsers.svg

<svg xmlns="http://www.w3.org/2000/svg" viewBox="0 0 256 256" fill="currentColor"><path d="M216.00781,40h-144a16.01818,16.01818,0,0,0-16,16V72h-16a16.01818,16.01818,0,0,0-16,16v23.84521c-.001.052-.00781.10254-.00781.15479s.00684.10278.00781.15479V200a16.01833,16.01833,0,0,0,16,16h144a16.01833,16.01833,0,0,0,16-16V184h16a16.01833,16.01833,0,0,0,16-16V56A16.01817,16.01817,0,0,0,216.00781,40Zm-32,48,.00147,16H40.00781V88Zm0,112h-144V120H184.01074l.00488,55.84277c-.001.05274-.00781.104-.00781.15723s.00684.105.00781.158l.00245,23.84155Zm32-32h-16V88a16.01817,16.01817,0,0,0-16-16h-112V56h144Z"/></svg>

<svg xmlns="http://www.w3.org/2000/svg" viewBox="0 0 256 256" fill="currentColor"><path d="M216,40H72A16,16,0,0,0,56,56V72H40A16,16,0,0,0,24,88V200a16,16,0,0,0,16,16H184a16,16,0,0,0,16-16V184h16a16,16,0,0,0,16-16V56A16,16,0,0,0,216,40ZM184,88v16H40V88Zm0,112H40V120H184v80Zm32-32H200V88a16,16,0,0,0-16-16H72V56H216Z"/></svg>
